X: 1
T: March of the Workers
T: Life in the City
C: Billy Jackson
N: from Gordon Turnbull <gturnbull:OBLIQUE-DESIGN.DEMON.CO.UK>:
N: From Billy Jackson's 'Wellpark Suite'.  The music was commissioned by  Tennent's
N: to  celebrate the centenary of their Wellpark brewery in Glasgow and a recording
N: was released in 1985, featuring members of Ossian and The Easy Club.  Billy  was
N: part of Ossian and is back in their current lineup (as William Jackson).
M: 6/8
L: 1/8
S: Jem Moore
R: Jig
Z: David Marcus
K: D
DdD cDB | ABF AGF | EFD E2F | GAF GFE |
DdD cDB | ABF AGF | G2F GAB |1 AGF GFE :|2 AGF GFG |
|: ABF A2F | ABF EFD | GBA BAG | GBG Bdc | A2c dAd | eAe f3
|1 agf gef | ged cdB :|2 agf ged | cAG FGE ||
